X:1
T:Who Shall Be Able to Stand?
T:Who Shall Be Able to Stand?
T:Knowles Shaw
T:Knowles Shaw, 1877
T:Public Domain Courtesy of the Cyber Hymnal™
T:Public Domain Courtesy of the Cyber Hymnal™
C:Knowles Shaw
Z:Public Domain
Z:Courtesy of the Cyber Hymnal™
%%score ( 1 2 ) ( 3 4 )
L:1/8
Q:1/4=97
M:4/4
K:E
V:1 treble 
V:2 treble 
V:3 bass 
V:4 bass 
V:1
 E>F | [EG][EG] [EG]>[DF] [EG]2 [EG]>[FA] | [GB][GB] [GB]>[Ac] [GB]2 [GB]>[GB] | %3
w: 1.~When the|trump of God shall sound, And the|na- tions ga- ther round, And the|
w: 2.~When the|del- uge swept the world, And to|death its mil- lions hurled, And the|
w: 3.~When the|ci- ties of the plain Were en-|vel- oped in the flame, And de-|
w: 4.~When the|day of wrath is come, And the|day of mer- cy gone, And to|
 [FB][DF][DF][DF] [DF]>[EG] [FA]>[EG] | [DF]6 E>[DF] | [EG][EG] [EG]>[DF] [EG]2 [EG]>[EA] | %6
w: Judge shall sit up- on His roy- al|throne; Who will|hear the wel- come word, From the|
w: wa- ters co- vered o- ver all the|land; Those who|trust- ed in the Lord, And o-|
w: struc- tion swept the mul- ti- tudes a-|way; There was|just a lit- tle band, Who were|
w: judg- ment they are called from ev- ery|land; Sin- ner,|how is it with thee? Chris- tian,|
 [EB][EB] [Ec]>[Ad] !fermata![Ge]2 [Ed][Ed] | [EB]2 [EG]>[FA] [GB]3/2 ([EG]/ [EG])[DF] | E6 z2 || %9
w: lips of Christ the Lord, “En- ter|in, good and faith- ful, * well|done.”|
w: beyed His ho- ly word, These were|all that were a- ble * to|stand.|
w: a- ble then to stand, In that|great and that ter- ri- * ble|day.|
w: how then shall it be? Shall we|all be a- ble then * to|stand?|
"^Refrain" .[EG]2 .[EG]>.[EG] .[EG].[DF] .[EG]>.[FA] | .[GB]6 z2 | %11
w: ||
w: Who shall be a- ble then to|stand?|
w: ||
w: ||
 [Ec]2 [Ec]>[Ec] [Ec]>[EB] [EA]>[Ec] | [EB]6 E>F | [EG][EG] [EG]>[DF] [EG]2 [EG]>[EA] | %14
w: |||
w: Who shall be a- ble then to|stand? All who|trust in Christ the Lord, And o-|
w: |||
w: |||
 [EB][EB] [Ec]>[Ad] (!fermata![Ge]2 !fermata![Ec]2) | [EB]2 [EG]>[FA] [GB]>[EG] [EG]>[DF] | E4 |] %17
w: |||
w: bey His ho- ly word; *|These shall be a- ble then to|stand.|
w: |||
w: |||
V:2
 E>F | x8 | x8 | x8 | x6 E3/2 x/ | x8 | x8 | x8 | E6 x2 || x8 | x8 | x8 | x6 E>F | x8 | x8 | x8 | %16
 E4 |] %17
V:3
 [E,G,]>[E,A,] | [E,B,][E,B,] [E,B,]>[B,,B,] [E,B,]2 [E,B,]>[E,B,] | %2
w: ||
 [E,E][E,E] [E,E]>[E,E] [E,E]2 [E,E]>[E,E] | [B,D]C[B,,C][B,,C] [B,,C]>[B,,C] [B,,C]>[B,,C] | %4
w: |* Who * * * * * *|
 (B,4 B,A,) [G,B,]>[F,B,] | [E,B,][E,B,] [E,B,]>[B,,B,] [E,B,]2 [E,B,]>[F,B,] | %6
w: ||
 [G,B,][G,B,] A,>[F,B,] !fermata![E,B,]2 [A,,A,][C,A,] | %7
w: * * shall * * * *|
 [E,G,]2 [E,B,]>[E,B,] [E,E]3/2 ([E,B,]/ [B,,B,])[B,,A,] | [E,G,]6 z2 || %9
w: ||
 [E,B,]2 [E,B,]>[E,B,] [E,B,][E,B,] [E,B,]>[E,B,] | [E,B,][E,B,][E,B,][E,B,] [E,B,]2 z2 | %11
w: be a- ble, shall be a- ble|then to stand? Who shall|
 [A,,A,]2 [A,,A,]>[A,,A,] [A,,A,]>[B,,G,] [C,A,]>[A,,A,] | %12
w: be a- ble, shall be a- ble|
 [E,G,][E,G,][E,G,][E,G,] [E,G,] z [E,G,]>[E,A,] | %13
w: then to stand? * * * *|
 [E,B,][E,B,] [E,B,]>[B,,B,] [E,B,]2 [E,B,]>[F,B,] | %14
w: |
 [G,B,][G,B,] A,>[F,B,] (!fermata!B,2 !fermata!A,2) | %15
w: |
 [E,G,]2 [E,B,]>[E,B,] [E,B,]>[E,B,] [B,,B,]>[B,,A,] | [E,G,]4 |] %17
w: ||
V:4
 x2 | x8 | x8 | x C x6 | B,,6 x2 | x8 | x2 A,3/2 x9/2 | x8 | x8 || x8 | x8 | x8 | x8 | x8 | %14
 x2 A,3/2 E,4 x/ | x8 | x4 |] %17

